X:1
T:Psalm 66
T:V 9
L:1/4
M:16/4
I:linebreak $
K:C
V:1 treble nm="Pipe Organ" snm="Org."
V:1
 d2 d c B2 A2 G ^F E2 D3 z |$[M:14/4] D2 G G ^F E G2 A2 B3 z |$ G2 G A B G c c B2 A3 z |$ %3
w: Lof sy Gods goe- der- tie- ren- he- de,|sy Naam sy e- wig lof en prys!|Hy het ge- hoor na my ge- be- de,|
[M:12/4] d2 c B A G G ^F G4 |] %4
w: my on- ver- hoord nooit af- ge- wys.|

